!!!COM: Beethoven
!!!OTL: 13 Variationen uber "Es war einmal ein alter Mann" aus "Das rote Kappchen" von K. Ditters von Dittersdorf
!!!Variation: 5 d
**kern	**harm	**kern	**kern	**kern
*M2/4	*M2/4	*staff3	*staff2	*staff1
*	*	*clefF4	*clefF4	*clefG2
*	*	*k[f#c#g#]	*k[f#c#g#]	*k[f#c#g#]
*	*	*M2/4	*M2/4	*M2/4
*	*	*A:	*A:	*A:
8D	8V	8r	8r	8b
=	=	=198	=198	=198
4D	4I	2r	4a	8cc#'L
.	.	.	.	(24eeL
.	.	.	.	24dd#
.	.	.	.	24cc#JJ
4D	4V42/V	.	4a 4b	8dd#'L)
.	.	.	.	(24ff#L
.	.	.	.	24ee
.	.	.	.	24dd#JJ
=	=	=199	=199	=199
4.D	4.V6	2r	4.g# 4.b	8ee'L)
.	.	.	.	(24eeL
.	.	.	.	24ff#
.	.	.	.	24gg#JJ
.	.	.	.	8ee'L)
8D	8V	.	8B	8bb'J
=	=	=200	=200	=200
4D	4I6	2r	8c#'L	4b 4bb
.	.	.	(24eL	.
.	.	.	24d#	.
.	.	.	24c#JJ	.
4D	4V65/V	.	8d#'L)	4b 4aa
.	.	.	(24f#L	.
.	.	.	24e	.
.	.	.	24d#JJ	.
=	=	=201	=201	=201
4.D	4.V	2r	8e'L)	4.b 4.gg#
.	.	.	(24eL	.
.	.	.	24f#	.
.	.	.	24g#JJ	.
.	.	.	8e')	.
8D	8V	.	8r	8b
=	=	=202	=202	=202
4D	4I	2r	4a	8cc#'L
.	.	.	.	(24eeL
.	.	.	.	24dd#
.	.	.	.	24cc#JJ
4D	4V42/V	.	4a 4b	8dd#'L)
.	.	.	.	(24ff#L
.	.	.	.	24ee
.	.	.	.	24dd#JJ
=	=	=203	=203	=203
4.D	4.V6	2r	4.g# 4.b	8ee'L)
.	.	.	.	(24eeL
.	.	.	.	24ff#
.	.	.	.	24gg#JJ
.	.	.	.	8ee'L)
8D	8V	.	8B	8bb'J
=	=	=204	=204	=204
4D	4I6	2r	8c#'L	4b 4bb
.	.	.	(24eL	.
.	.	.	24d#	.
.	.	.	24c#JJ	.
4D	4V65/V	.	8d#'L)	4b 4aa
.	.	.	(24f#L	.
.	.	.	24e	.
.	.	.	24d#JJ	.
=	=	=205	=205	=205
4D	4V	2r	8e'L)	4b 4gg#
.	.	.	(24g#L	.
.	.	.	24f#	.
.	.	.	24eJJ	.
4D	4V43/V	.	8f#'L)	4b 4dd# 4bb
.	.	.	(24aL	.
.	.	.	24g#	.
.	.	.	24f#JJ	.
=	=	=206	=206	=206
4D	4V65	2r	8g#'L)	4ee 4bb
.	.	.	(24bL	.
.	.	.	24g#	.
.	.	.	24eJJ	.
4D	4V6/V	.	8d#'L)	4ff# 4bb
.	.	.	(24f#L	.
.	.	.	24d#	.
.	.	.	24BJJ)	.
=	=	=207	=207	=207
2D	2r	2r;	2r;	2r;
=	=	=||	=||	=||
*M6/8	*M6/8	*M6/8	*M6/8	*M6/8
2.D	2.V	2.r	2.r	4.ee
.	.	.	.	(4ee'
.	.	.	.	8ee')
=	=	=208	=208	=208
*-	*-	*-	*-	*-
